-----BEGIN PGP PUBLIC KEY BLOCK-----

mQINBFh1uGQBEADw3QIvxrsUE0rRA+i+8xzJ73vMt5tX0r4sHQBSvvQsyshDs6Zn
CDorAdIuzIfvSWJinc8HUP4ZS1sAooN7o1CjqNK/iBdziZiV7bxjeJ9bC0TBqi/g
71pGV/L7LaBBIWrAbblv6hXRk+M0kp6nVoEUYH/ThYavqOY+J0UOlNG5cGsLp2Sx
rhKu9ls5lB8/+K+0oOZoXEi/kSXGcCgg91et7q3+G7ADcBPZ1hm5PuQYW0Ac//BM
GMkvIWlQQvE/sFuj1TaS0OlpDalSk/vHB6Gde64H0cUMAImHoONbqqVlH1lsvWhk
OZaLPvN3RXyQYI+KVmU8t2GESeoF8b/96gY6R0Kbl5cgr/a0PE2plaqNCw/vg1bY
BOabREB+VGAUq6rpNMp5wPmayMwufc3BwEHJKRshovdC7I6gAHKRb1yIzlFruJhM
SdLkROisECZE1MRps6Qw+IthTN1lqJz2mpjXw4lHJ/wcD7PBBAXXRHwdTZXNTpMY
ejiAwOiNaK8f1uTPzHsVyFB2/R4bf4/svdIyRwjlMTjETdtI74xqhSNRNsSjEhvU
1s+4muntLYXXe6h893TiSi9K8mkVOOIyc+KbkGjdtLmFKSrW/0oULoGG+9So8pcE
C8FBM+hgPWvcqm2GV80nOAXrJW8l4+jLZLc9oHxOoyMPQ0LB00QfsH0J3wARAQAB
tCJEYW5pZWwgUC4gQ2xhcmsgPDZmdGRhbkBnbWFpbC5jb20+iQI9BBMBCAAnBQJY
dbhkAhsjBQkJZgGABQsJCAcCBhUICQoLAgQWAgMBAh4BAheAAAoJEIPRnqR55X54
N4kP/1GkE/EcT3p+2bgh/B4eOOOvN+A6uJQAgNyIJKOHdG8BfCAbQom9s23JyDSd
02+kpOrJTJgvrFH0TE79RCyX3ZLTxlp2FFo8PeUKEoFivxpe2gtYcOnc/eNwxJqC
IVKxROurc20tU+Me19rvuPqLbivzIG9mSdascfongtyarRX6JA4nxt3a/YZGsuDF
jE0ZIot7vjDMuzNxGUgEB9XJG+LDtJ7Zj9ifOwoe/xRj4pQ6uj6DJrfX9fEEr3Iv
rIjofZuSsfgm2vlWjQIjFpClY04vcIybIV1kqD0FwW0GEaoajNncOjdQHCSbP5nC
YT4AfwyC5r6p13EfMNAwDq+2liguutJ5EUGjjquaFv9guqxgAoO+se0vs5IHt3UV
/+9UbXWSjRKbAUSujAIwqm5GuynayQqHEKbznJLRnFeLFQkKZxtziZL2Sz7Is+eS
at19PizwWy6muMgNl3/EuKER0FQANof6M0SVCIi7tjh1RCslEXZ5zwmqgi6aRChu
tU76H1vYStDA6cKnimhk5nxftMrVsQagbYhOD65YsvbH+OkbDkoodmEKSCJ41uWz
q+vYK0sOi/bejtU9NCUdGU9lsaarKlP3tdlAWTNK3qFPnvQMmv+xHusRotXqv/Kz
gt+710BUwHOCEFMWAwAHZLWIlUnbQvp+c1NCsL78zNbvpL0y0f8AADqP/wAAOooB
EAABAQAAAAAAAAAAAAAAAP/Y/+AAEEpGSUYAAQEBAEgASAAA//4AAyr/2wBDAAMC
AgMCAgMDAwMEAwMEBQgFBQQEBQoHBwYIDAoMDAsKCwsNDhIQDQ4RDgsLEBYQERMU
FRUVDA8XGBYUGBIUFRT/2wBDAQMEBAUEBQkFBQkUDQsNFBQUFBQUFBQUFBQUFBQU
FBQUFBQUFBQUFBQUFBQUFBQUFBQUFBQUFBQUFBQUFBQUFBT/wgARCAD8APADASIA
AhEBAxEB/8QAHQAAAQQDAQEAAAAAAAAAAAAABAIDBQYAAQcICf/EABoBAAIDAQEA
AAAAAAAAAAAAAAEDAAIEBQb/2gAMAwEAAhADEAAAAaDplevC7jWzHdtZI4tnIHtJ
3AvHCF3H1JvpZC4cK2jWlNsUvEYQvEakXtvZi8TkitJyBeI3IApO6t3vWEKUjcil
LtqWQEtjOLWyPFyaG4lQ9TJPxxd6jCLEat5tEjtyh61vQjN6VAnN5Jm9YRpSVCBb
1uX1isIx1FkSwqVkI3k76ggsKjSgFPVsaQLLC8PKEC2q5FmBmskGPD3o+mnWHqc+
R25vTla25uBnbu5GNv6hCccXoUxsjAGrtUbXz9tnHy0cXq8xjbo2ttHmbUUb1Ayx
Ks+KXYHiYJmxbjKDzbvNfsnzfKPQ+/mdTciZbtcHM3l163mSb1mjAd6VDiswBbrM
vyepaJK803i9abKkilsixpMYuimCmbuLFUOZIrjjCdxc2wacS5n6E5A3Iuw1mzeh
81mbzVk1m9Sb1vUgK83Vmla2A/0Gm9g5HWvPP+oRnK6sRqc2t0JH2xosoJVydNqw
5ZhLVro7tbgm3K7KGJ452vnpRzKyRkl2uFratdPm5m9SZvNwVxQ2/KelfW2+DI+i
POPfSL4RV5kPMhSo03RMUoQX6lkdLAQtaP5BL2w/jxWhPYB6vbaWEhrDAUrz0WbC
GWP1IJzGuyQMtaw7uiqCo7ayup+QhbAKr6hzfpTU3i11q4abxFPt8i23lqwdNrVm
303QmV8FTLWKG8pub8hpyy4xh1Iiq26CWOeSFwDE5WOgfCgex1e3SIY2zWVNyxke
i5lYIszslb7xzG/r0dCsyN5Npm3GWLimTE01MwFmZq3nL8pGUaI1MJkblGiTVcDY
IKIhHGCm24JTvUfnVvIsQkgnl6q1ZLVdO1zuYPJe0odQ89DDPSjYt6eXR7Tze3ZN
NvlA8bLg0bWmJaDpoiI4ym1vdtwkqLWFYxcSxESEYaaTIubckT5o9YeXGY5PeyON
usN/ovUfQ8nh7rLpD5Iz0JLrTxCvRnni65tvWj4eVxbEUWycxUxpo4WawYyQGbcI
hlxarVbK9P0SHFnxbVyk4YV0+RF+UfYnkxTXFbf42yxde5N23v8AL8wPCvMoQQG8
CcQCSSWSCTD1u+cK7VzuodA2BCLxsdOVi2iDylFrZaEjGgFuJREAReIZXrrpTm3E
J5H9ieSV3hjmK3zb9P79wP0X183jVddVtw2ZysqhtRNSdhuD9RfhuHS+GNI0ew85
3b+T05KmWaLl+PyJKENlZODMbSVBjwItw/a5cW8+cOZ6M/0J8s0FFqWhYkhili9J
+Tu59GnjxWOdflYvHSMeOis2mQznFpzaLJT+h8wx6vQPX/OnqdTay2VU6iL1HIFj
G1GmNT4smC6KRHRnFqCbGPRIxsjHEGXWplqN97bwruXQyeUFpc6fMWUdM8/cBVJ4
Tl9KtxNxrraX2jNz1Zntzwz6+FrQneVFdFttYBhBzI6Ep9vUuPRbRxQynybBDFBk
mLrYWQQ9UrtVMl7Vg7YS5pyDxcpFYNrFfLMvEprl7M5Xbop9ynO++dr4D7AjTErl
drVojQyOamNSZC2Oky1V49Mh2o5EWCAhsGnkrvrHTBG3SdQf/8QALBAAAQQBAwMD
BAMBAQEAAAAAAQACAwQRBRITBhAhFCIxByAjQRUkMjAzNP/aAAgBAQABBQLKz2ys
rPhZWe2e3ntlZwPlBZWVlZWV+s9gs/ZlBBZRWVlZWC4Mge8tr7EOMJrWSCSALi9p
BHYff+1nt+/vHlRUXSIUg0OsMjLnSk+4COdrBHP5ezK3kOdK0O8FfKPf57Y8Z+z9
DsO8ETpntqshZ6gRGfUXTj07wY3lPbIEfyKOMuc5u1SR2Gn00k7oaslOSSH29j3+
e3lfvPf9dmhaYN7nbQyzdm3ixc3vmbKGwl6jiLAInlcTg6KMYmpxSL0s8ajw8SN4
HyPaXfJQ7/v7PnvtWl0hKRE1q9NxG5saXSHb5iZHue1oMjmV9qI8u3tXLZAmsywr
+Xje21eilEltzXULQsjasLasLasecLCwthRjK2IM86Z/5xsbCG0cEw8lqaqWOjiL
5K9NPrOJZUDQ2tlGrl3EMGuHK1pDJFq2mGupG4OkyNinZhYC2hbQsBYC8ds/YCFp
8ocac2Jmbdz4gb9uD2VdMEMDqW1np8FsXlsQy6Pw2unVvEkSuUhPFqNP08x8O0x+
6uv392fsoT7bFevJLFpe4inVRqclmKM2HvZ5kHlowQBHFuTXrPmRmTPF41unudNH
50f/AMv+Hygv2tBqc81KuHK6/jtxDLmtBLMsDvanvGc4U8u5YKCYs5UjfbqtTc27
WDXaZ4k+P+I7Qs3v0GoI5qEQ4LlDitxRcTHnjEY3qxH5fCVDUQor0mEYUW4W7Czl
Wod7NTr++szjn+fvx9mnY9RptfbFXIEVio2V7KymqCRsMf4zV3O9EF6cNRAClkia
rmpQRKS/uMVn3iRH3DWaykjw/KyO2R2z25JM8si5HoPeqD3c9Jg203cYJ8y2OJWN
aZCh1HCDHqLXHeHNP+ZXqy+Nxk9BJJDT0xgdp1cqSmWKNxxqTOSKxFtcYdy9OFwK
7yV02uVw+fTDGXLcUCmlQyYk0i2HwQzmS9JJtcab7Kn02rCrFihAq+vVeSlLyqch
gszeOoLM0a0WPYa2oXrWrx2JoI6tr1LHxbH3/a6c72/DfHbVv8B4Tj5LstLVheAo
2tLQwA6LITS07PrWM3yajdNWO5LYloNhnN+2eN2iRcNO9MVK7cNTiEtetV4ZaenQ
kmpGWQ1DXkkGW6m38RaZnW9ObXoGJcr41fkL2CFENai7ct63jGMiEgRcgXTLPw0X
7bkDVdo+qmZTjZDc05kKGkySy0KzqkFxyDhmVgcnUw18HsUcqHuRb4txbo6NKNg1
xrWVDZYQZIc3jHsYRh7WJuAhp8q/jZUNLmQ06dfxkq6I/HprajobEHxjy4qYtUUQ
Cl8tsxnBiw8NEifGUI/McQUbcJ4yJv8ANWeeG5rcYs0ZNIsua2Mw6jYaOHUoG+k0
qC3I30NskNymhYQCa1dJz8d6VwEEPZ4ynxprE4eZ42qdsYPEU9wLWtTW4LUfiwPb
qc/HFtcKvH51YbNes/8Az3xmr0gM6NsWEEAn7wDPKFQ1O3p9/mZJWru3dyPDid2u
XZ6lUOt+ingkkbVs2K5PvbA7CaNwLU93ix8QUWQxObuXEuom7OobQ/BdGavRTd2k
8awgggjCHoVTnp2UW9MpRvqsygn/AABg3J42J+sNLWWRdhZd2PhvNeWTscYvCPxJ
4U/+c5rCFcS6tbs6kuAmrbH9ToAZ03iQQQQQXlVNQt6daJEkDD4appAxtzXGtMli
WxMcMZp8Z0yI1WyObp2HvrysbpMspTipCrbvx6VX21diMa65Zs6jkGa1jzS+m/up
bECgUEEEEFV6knr1K7xIxq1aN0sFm1BTsGxI82YLbUa9yRpq2wxtOyXW9Ls40uvx
sk+JFY97oq4jbxriX1GZs6kPmEj+p9MhmExoIIIFNKBTSmuXT1zmpsPh7d7Y9OjZ
YdXiKtRBjD7nNY163ALjyY27UfIedphPJcEWFsWxfVFmzqNo/DC4Gr9LP97UCgUE
CgUCggVo930duvJu7Htqdrggn1Z8b6mpF7oyHJrvAPte7AtTKHMTWYc3Hb6sNxr1
Rv8AV0OaaxH9Kh/eLEHoFbkHIOTXoOTXoOXT2r5DJMrcnLV48tnq7XVIWsEXuTfj
dhWZtoYOR7m4a3rw6S/S+s9J1YeojI+rDmyaxSP9ag1ran0tdt1p0gCF3C9cV68o
X3IX3Jt5ybfcheehekUuuejHTes/ymjssZXJlahtMUnvl8MbFKdrJxh9oNTXOsuY
3CK6yDRPI4tFPWrmmHW9dPUjqE8Zi0/HpehJ31uoJL0/2AdmhOcyIUrEdqWV7lqb
tjPpPe3ULDHwP/kcKxfa6OZ3v3gI2mtXq3PMbC8xMwvhOPnrOxu1ITbo2ZbCW7ns
9q07UcDpL2dUPQ7AdvTbI5ZXtbZcXP0GQRKWPeNYJ9T9O7HBqj4xKySnvFrSnp9K
QEU3plFNhwo2YTVuU8oaNTt+utxMRdujbJuLYtqb4Ohagyle5GzxoduMtbqL+RhB
YrVYTR1pDBJpdnni1yHjtdM2HV1BIJYfh01feHUvc6oAHRYO3sPClkwupNR9Np4C
iZtjO6VsUYjG5r3RwlFaRrE1Egdq9NP2yMu7hUi2ztmrmMW64zRtmrN1E0PGi+Kv
S1v1WkyJsm4PAYrFgbpHov8AMYUhU0i6gt+ptwxq2eKCGICFuZXuaGF0bQA5z1FC
o4nSur0RAJfCm/zWm5Wu3V3wWhMLNXLLDdjmv9XoenHZV6G1LZqYGRINpt3HtaMy
OLMqKLc8s2tsuwNX1D00JzK9seFO/lsuH4scMbG8bdhe5rFtLTp1ZjKznYfJ5aoH
bdR1WMAscWvrfki1aMNk0Y5pNOypXsvqdTxnLHqZoTWDL27VWaFN8XXYOp2HyyVW
DEnshpjfOFA3llH5JWBAecZP/8QAJREAAgIBBAICAwEBAAAAAAAAAAECEQMQEiEx
EyAEURQiQTAy/9oACAEDAQE/AfVQkzwscGjr/KMNxHGkVo0OKZPG1z7WWY1uZQkU
bTabGONdmWNcllllnkPIfGe5iQkJWbRI4JQsyQ4oncXRuZuZuevw12xLSC1ek0fJ
VT9vjcQMbLQpI3o8hvNxJnzFza9Pxsf0fjY/ocFDoj1pR0yic1F0J2T6spPs8cfo
8UPo8UPrRkuRdE1aMUNvbIRtkl9EoWUUbElrZ5pHmmYctzpn8ELojOi70ek+MTZj
nuYyWTnWL2uxU4WPggz+CY2Xp8jI62mLvSf/AF6YclfqyRjXAsd9jxocaLJPgdtm
PsZNft6we+JGVEZS/hukxjHyjahIY4aWbkbkYslPjRM3DekVY4lDN1ax+PKXJDBF
dmxQXAuvShcD0qyap6YvjuX7S0aHyhdeiGUVpJWYcCSt+i7r279Gf//EACURAAIB
AwMDBQEAAAAAAAAAAAABAgMRIRASIAQTMRQiMDJRQf/aAAgBAgEBPwHi5xR34iqR
fxzqKBOq5axFNop1U8PlYsVXsiN3Gy+mS4mUpXw+Ow2HWK0RsuX4J2Kcs3IWkrmx
GxG1a9b/ABD0XGLsdO7w5dX9iaNrNpYsWLadHL28PV1f09XV/RVZVftrnWNLcrko
7XpOTjHB3qn6PqKn6epq/ujKWlPDyTlfwMTsRlYk76PKLMkjazswOzAnSSV1waLc
Iq+CpT2oh5RGimtWsElZiGXyNovrRj/St4IeSH14VYX8aSbuRps7RKNtIrOlXwQ8
kPrxqR2yLG5o7msXZlybwQRGWDabTYzYyrC6zpLwW4KQ3giskYNrWXURjhFSvK2B
Tc3kl5+BlJ3WlbqVH2xLid8C9siXnitL6Rbjkr9RJ+1avB5Ra7+FH//EADsQAAED
AgQDBAcHAwUBAAAAAAEAAhEDIRASMUEEIlETIDJhIzAzQnFygQVAUmKRobEUJFNj
c4KSwcL/2gAIAQEABj8Cker6ry9WfuNgudDdWAXTDT7r1w6KG+JdWrmbbyXIZUHQ
9VLRKg03D4oh7I8wpBkfcg0KGU8zt3K9/go7ItHmu0cMnSVzZSerCpo36scrsyOH
RXhwUXapY8PC5jy+SM87Cs7dNx0+4X8KtTgbBHMM0e6FDYoDZNdII/OvTVOb/TCI
Ds4+XKh6dny7rlhS+n9WoRP1U5jSd1CllUVB1WWoMhHXdZmmRu1GLevJd9EWUvER
qNkWl2mw3Udn2r/wrISWHo1c3/RTU9HT2ahlpwhf91Z4/lWuvA0qf6YX6LLVolq5
XEFT+6jf13KsxOZ7hYQuQS4ndOjw/i6o+aA1P8Ik7blQBlGAWlgoLVoj7p8lLv1U
Iyte9otO92Y5fR6q5TgDGUfuuyDeQbpzst9gg5w5ymtjTVXXXCy0xc0hGeq0Qnb1
r77QnwIyrnHicqtSPEbJuw1Kc53hFm9zP10V+64oo+tcSLBObESLrIyzWnImBuiK
AU4ta3YY64ynIj1kJrjeTCLtzKqvPM0VA6EPxDVebkLKIwBPfcE63rRNydAmugT4
k0DZGfeQadk7Zy6YaYQrlGDdRYKJkYEIOQMeo2w2WoTObfZEx9EKbvFE4DclXj9U
A5uvRaYThdFtSoPhmXIGfVyzN/YrlXmnzq0zHkspU3Wh/VaH9UyDq6FJeV4yruK1
Hcbt5plT3D1U9cJnJ5r02V/zK3DZ/lYshBonYPbGJWSkCXu3GyqS5ocLuquuq3Df
1dOlSaJbUqU+R64d9ZraT6okOp+E/EKdxYhTsUfMIWuO5T+cIILXG6BhWamtmY2Q
+E4BrTD3mATsjXou7PhQ4CpVF6jxNyOi49ldxNNnsq2ac6ZkpGsCBLDsmO5r+67U
YFZTLSdS3VQBDeiE0gdkA1jW7KQZGGbpdcviKcX+01CkWV7qltzoYQBAx1TZwdUu
Z5WqPopQBEhFhYDIhHsmBvytQL7dAg0mTrjBupC6Y3RnRNNg5y4q8NaNV7ZoC9u0
pmR+fmEhDnap7Zg+q9sz9V4l4wvaL2y9sjQqDM4PjOs4uN+5os0XVt1GEb4aK4xP
RHOPQEWCrxcPplQ3h6n6Km14gtfBBWm4VYtEW1TTSbVczq1T2dU/TvPo+7UE/UIn
XveWGt1mGFu4VwjGXqZdAmNOuFby4hOVT5UPnPdsMKPERmax1/gmuBljxIQjuWX9
tR7aubNCY6sxorRzBuiM1OyPUXRp8Q5tbo9ojC/cK7ckvqESuuHEj/XaqnwTvlTv
J/ftdf01Q89Lp0WR972PclcyeDo0TKfGoJHwQkyolAT3CmAOBkRjxfzsKqgCbJ/T
Kq/+537JlVsFoN/MKnUG4BQwk2CysuuYW6KoMsk3hV+0qZ31TIaNk4xEu1XK/RC9
1lcJH8Yn4JhI5o1x4v8A4FVPlT/guMHR49SKGVrsujvJNINjgGhMZ2b3ueYysbKL
eHoW6vsp7KnmPQq5ZT8oUGv/ANRCGVzifNMea7y/do0QnXFrOphQMeI/2mFO+VR1
avtAfmHqgz3qZj6Y9rlGZeAKQJGBPTC6tgVT8nDuPPXhmn91/wAVS+VfabfMeqBJ
9G+zu64A3Kdku46eSdPvLz7lln3mUHdb4sPXhP8A6QHVu6ex/uBfaTfyj1YoVHcw
8J69w7qFO/cEqSoQ4fjOHNVo8NRhvHwXouJFN/8AjrcrlOdsdZXD5TP9qf5VL5Am
O3IC+0R+T/3DwrwrwrReELwhaBaBbLM5wDtsuqocXrms7yIxO5Qbun+emOqk+HGj
1LSm1txYrtOEruYNcmrf0VKrVa2jXZTNMgaFUm9o3MGgRKZ/C4sMMSw/yvH35e4M
Ce1klrdXIgBdSuK4U+4/M3/1SzwnZQ/lUZkHMjrKEuEDZWKhqGa/cY3/ABU7/FQd
0xcq6lBlQ2VcdWHvBzz9FywArzKcC670C3REdExg8DmZT8cLhGFotFJVu5fRV6/4
3W+C0lW/dZQrqypVqgmLSNYQex2Zh37naEcqbHhLZXUIkYZDqnLtRqyq1NcNCJ7n
n3qkeN/I1R0RcszdVPZXWuX4qbFa83RQHZ2bswss1W3ksqpx7tsZCbdU6rdHBD81
ZUurJYfphBwgd6Pdp2+qlBoOqYiFEZivwnqsrhB6qf3CDWiSr8z/AOMJCqUXb3C6
LK68q2DSdWHKVQ86xXG8A46gVqf8HGNVfunL4zpgG76odEF+Y6rMbk6BSoXLYprg
OZ2pwKKpD8yMIQrp0Li27WKoxtXX2TUpmHPOR3mDiUcTg8uPvQiUSNUScOZGcSv/
xAAmEAACAgICAgICAwEBAAAAAAAAAREhMUFRYXGBEJGhscHR8PHh/9oACAEBAAE/
IbcGyE2N8svRdCh0FKse0jlnWYG5gSLNifotshoE1SGm5VUan2yct9jTu+C/kkiz
1Xxs452RNhB5omBsbHeNDiPiWhwGl97gaI0zLTGxxsx5JJCtQsD+D92DKavJYC0F
8wZyz4wTbNux5fsNNPxsb9k5ZMtKO4KUjdkc4E4tE4NExVlMyyYpv2NxQmdGVLFg
zHRJjZbeki+FkSnSkS+syXV1tl+jlUGcni/5jyq+kTpCBeYLTcNiaJOFAemQHAzH
kQZM1ZhXk/QeWeyCmz9m4ZomdEYQ0NUtFhQN/wCRKzLedDzCsjgmY8oWSHOnQOfs
3l2RY/0WmKG9fZGHmQjD9rIhG/7USpvU2hpmudN6Mrrjs5i+DLCbSVnJhWRsnMje
UEw++DT9nCB7LBCI1IwtaIskcQSW4JW4XZHLJAxmrEvIjDQdEk39ijPSE59QN93J
jS9FyJhugnStXB/kMW5vY0cNcjkQks+BcoDj+xsLl47H62SBrJOGQThGS5RcQsFM
ISnZE9iScHgaoiMiW9lkMJH+oTOogUhK4DHXgFIut2Niam7sDHoF+pElHJtut/bN
HmBW/QgmphSr9iMFcxYc6BYqREbWfOEONfmKSHWLKTReuVq2x0aDh7FeTanDQwtE
NmXsV5yJjOdmcxArhR8F40ycYFwSQpSolGLGQTUzkXBZcte4MBmIwY5yyNKk3tsm
0bu35CySWza0v7Z5gEql88jdrbR/6fzcjI47fYppKuEhC3DUuB0ZBKOL6ZOM9phu
7uqLE3JIyJUQSpZD4nX0LQnfZ0sSdNeyDRH/AEGkkPIlwS/sQsrUxuRtmVM0nMi3
YphN8ckyKlfbC03DaKJf9EeyeRvBKkVp87+iLOTyZSf5EmIgHoxoDnLduBiRxA+G
lfNEwKVscphI6Ro9EJIrPoinBs5H2RK46+FyJE8ZFOFsgWBLrZz/AMB9tZcRvJRX
ucN3CEJynu6gQgoTBUJUL4MqNQJ+pMUTgreBWzChZrgRMWRTZTuxqdtFkvCZNz8Z
JodGH0R/ZiaPsikRZLlsueRMdbObG1syumxCXwb+XbEME4Es1piNGpoVJJnBeho1
ZdGwVEJ0ShH2o4GajTOCHkThLfuNCB+LaOxyVuuyDKNuzXRoeDRCMhiRHUlW4m/0
VRa35sWkwIz1ggc4pDGqXNQ5V1VvljnEJjrI5wDcNM0/IlYN1jk5XJFBfWj+R/Ap
evhD9Dp9GSJ8iUC+G/JgggWioMWxVsAoOEke9kClReiqxy5ISXAzJSg9GWRZMBMR
Viak9Gln0QBLbUimS9kj1LN01aFJqHKY2qlZEShO8l9FYppPcHYTWZIEao+wozJY
oJfH0cv4YG9cCc8pXC2QtBfjwhjosj2KhyIoX6BtKxzIVhOaoxSXJiEEzkfJr7Ek
FdN4s3f7k/bIODp1IVy8pa2OcOwlxqHYEM4BCUbuR0AhEAdFJXEYwPoaUFosfZH+
wWce2psRsc6ovMBQmkiVy8i0rrT9DefshmhymzAqzNQspan+bHEd+gMXGkZuTQui
GnX0BETOJcb0ll7MIK/fWq9kxQpy7+Tkv1XPTJDaEchwnr8C8imG2JpJMiVVj77o
ocVtCZMXkWl/YY8tISpKzaxJA3AiSPtl0miTKFfgVxON6sW70hJyx4tb7GnNES7F
c171N8dFQ4GM6w/I+X/4qJUR956Hhr6NLxJMQL2gZDmLE3RVEtFoQLW2xieWcB5U
k0fk4QlFEjbpjYSZK3tHU4KiV0ZIcr7cNWTNpDRlib1xFCSsiHEYzRrtjG4pqD5o
U/Qp9NsQZpCShQNJv1SThMr5GbgQlim21knFOSeRYdPykGSyjR7/ACIoscnWGhCq
S2iHlFPCJnu69kRr7Ycu7o/W8Flqw8xBdSRpiVlfAYwq8sUV2djGn2Qop0Kl+BXF
3F2pLQLduJGg7RCV4HGH7ZHLJL1iJJ1nY+jCFGHQSqBoIJJDQplwLaKJa7DrPYol
dOXKJWT6D8KXVdD1khTVoUQWuhG4FpcDkjXnIjt5EYgQTRAxLBWV6sHOolof9EGg
TOiJtOLFw4DFqMZG9p2+VosWflCVNN7YudkOgihIY26gyIqTOZuyEbo8nsPGwRt+
bX7IhpyIrwGclIExKPzUbCGDWH4IiErVb2X0UrC/p2IVrImoIcGc1ZEpBkXipnsd
ahZ0fsdbeFUPTLnZu/lDx6Y6qw0KQR4gQ64MLoh9ii46J6emymjiRfoHJ0TFvsn8
Vf8AkiauVMsxVuEJeJ7MxULKUCtkHoSXmuFK3qLjW8m3gvHBZfEtkRuqt6s3UExj
7IOSRHHSeXzwJupTEjCIptD6uU0M7mqIFc3QlQSlIzJCoyV0cMX8YRMZ2njZp8n6
Fr5j+BbRTUiUInJD4ut4fJjeFS9BQWvApkoNQztgy2NNBiNJ/UM2N9uWhko5kW2M
Y85w0MRA9IY1GsLUsevuEiBeiZfog0x8EsLeCVUjZr/iPdSEnV/yJ/mUFYIF18TK
UPXxYRNXgZWKjZ0Jyik0MOhaU32bokARLY4WQqbxqabC5clvbEjCQuCCsMKpdq6G
MY+dkDFPZoUKsKKaXAo6LIo9Tb8nc/8AgW24mfB1G/4Mh8IaCm8/BAZZ+CQNxOeB
PIVBBp8QnBpF9IgIT+DPSmdGEHGWQoSyZSUIRYURapgtH2chUjuyDCWBHErb+2Dm
1TFp8F3K1/RbiNMcEqJoGRyOxfJYhlOSI/RUfZDV1AnQg0rEWwfQxlkQjUwJkS2V
LnZeyICpS40Jx5LGrSLRVVZH0xBDj4ru0X4YRkOycsEjDrUKEuibtMe/hkqa5F+B
fL2uJaO2F8j22M8OGJU2jBxkRM8E9mxQ1LgiNLlBdUJaIycYKoe0ImEoUtjUYsJC
mtgqQTBt3bLIBLYdF6Yo07iRoYCaLjyYp9n6hJkrJonV5+MIn7Ezr8inCPJKVZGA
y14RHiHcTEqkj4IvXL/ED5KKvmYiyMnIka8sVglRTHT157YmkdqNNCVqWESqmxdL
wIUxKk9kOUpF52aVeZF0dkPKK3fnk5QnYTDK99ElB83NI6lKvscxmg0s/oUPoXiB
JEREIxwebsMj5GWCDi1zgbA3I8QMoKTPw1/KBjZ/ILLmXOhsZIaxJIwTlY2HSQ/Y
rHQ9kBNHSH969GVhC0SpEzMSk4PI5MKvhyRTOSVhD2RfL5ESmPFPgXXqD2isiPoW
CQSgbuCXekDTOFrI2T8rOZQroVSha4S4Qx2NY4rKJZJbEJYkRbv2S7zGptmNFeEF
JtR4IJdDgmpHmUJbHtnM78FL8DnhkWhWZKtIVrF2KjIRR5FIMfOCOayk2LFfBCUt
JbbHvWSTszyFEdrBeaiULU+UHI9yamiX7MEOTwNKRoRnyXNj1XkTg0kzoaB66IY3
2kv/ADJXHCQTFMETkOycX9iISfTYRaZ64m2R0qTIQ5xkdFAlPLorwNbsn0caSOWN
fCNivBJYrcHKPIo3ROSHCDgjXtV+ES5uXeR/0hNrRW0MSNvEZHG5BZhD2pZwMfDh
lRcypfsSyKVGaxtKxrBX4KKs/AsqOmPVwJUXPOrxju7NCs48+hmbZJszBsgovIVB
wfKg+hQ/hZno8EP8j6Ro69/nr4JvgdD6luYHcbMiUMjfwFMtiZiVvLC5OStkxOFn
wiLZngYkrJfWLehaf+UxZBGxNQlbTEueNEclFwkGMSwLeE5iNXWqWRYi2NZhnu18
VHOMPswTHJkfaPFcIyEPfOnBf6NYQ6BSQlUFplSYkyqGrwjmA5ubFWpoaWp0IY5P
JeP1AqXXQhLRaPVH/9oADAMBAAIAAwAAABBuAihbQP8AAzxgS7zgVBPokg2K1Uqm
giO0OjavbpXgw+LT2pn9JKRwJ4E8IHvHY3HD5TAbSWuvTTbkOAlApUNHMCr0QJtu
66KlCtFS82QUDrtWhKrz+BCZ+qqFJJCQBXov+0xE2KxcU9RhPdPfzPiVc40k0Cvg
3fpef2+XX6n45nhdKLhT0ECkBNTcCS1eKec3uFR6bTyIsvpqiYsobAx6jCW9n/3a
On3Pzi6BMKt9YtQzu/cz/8QAHhEBAQEAAwEBAQEBAAAAAAAAAQARECExQWFRIHH/
2gAIAQMBAT8QmznwC/rP5P8AXOWc7xsy35wAPljfSC7ITE22zE8GCRno4TiW35T/
AIXj8hwa+ynwkR4MJ1sQD5ZALbKJ38373737TFoQzIlgd2QZeJeo2Rf3/DPV3P8A
t/adIE8QL1OrJ7lwFlhwfOf0nTnC66bpYLPQFrxtM9smkVhbh21+Ib0SXg4aQcSz
cOI9tk3SB1LXuItS3mZOzGEG0PbqB/b979Ji8bCLXuydIlZhMZcZlKJsuupjGRww
ieA8KZtpi/tDnUqVid/V1U3VRwxAg6aWkf06gTeGVuWTloWGRZl3IjjzuEfyTpAc
n1ScvUdCy9LJ28WztsAsIL7PierD2zbErLrBrYtchD1DLHS3gLXRLddnpN4X22In
U3ZgsxXgXyMOj8swyXdJFeHBZAnhhHTvjkJxIt3Mdzx0U3ojghyfqJjh/8QAHxEB
AQEAAwADAQEBAAAAAAAAAQARECExIEFhUYFx/9oACAECAQE/EN+Gfd7rd2X3MO+f
M5G/YLpwlX2UJF5Lf1SzlODg1U9levt9Mu3e4RxRzPZf6rLCywsWIS5JqOjDnQXS
gNwyc7eFrwUziWxZs/SD5L6/8tPLQhW7PIDMobS87veM07Ba8I51IbX7ieAYRd+5
G3uGdK0ffL2x7PsED6QzgfTjW25xfytcywfL8r8pcPcmOQ4SrIl0sy3b23wHx9t9
lovOdkf2btlepH25TYe8tHUNN4fkunJe+GjMwM/tsfcPci6EAGEhoH/V5cMcf6Eh
dZL7OpdiAG72mLvWxJatscCOrxnpxhsFsGcP5NhA4kHaKO7MlHsZGut3fDvLZbx9
wYZPm3Z2AS6Pbc7f2GRjUeiGOwsssh33LebZTDMvSRHpLWl4s/EbkdCzLktv/8QA
JRABAAICAgICAgMBAQAAAAAAAQARITFBUWFxgZGhscHR8OHx/9oACAEBAAE/EE1S
1i25ilkHrUFa0aXOYEDyDiLGmit99zAOVMDULG9JCUQBrX6YrtC4CDu5q1ZmMjgt
1KqCxW4PUq4Ds9xzbL0nEEtEADmIK4Zp4I8Dt0lcwaXwzAgLEOjZBLWvO5akEDZE
lZXsSFOyU5cRuF714iCkLusxpqxAzm496LmuItk6c8wWN1WnYsF3ksKpwx3AbbaY
A0ld8w7EfIvEtMHyMQjCOrgtKtOVy1CkX3cEKxbnFROgSqlIs085fECW3WHAQ3Gw
lMIUgQgKbq8dLGZVGhbULVjGXJPUSDpTVYZqsBYC7IRRAytioK5oXpFDdbqjiWoC
7DUEGUvN8eIFAoNeogGyckbuCeHQQqS5bG6isiE5TPqBDYBwVojYoQbpjfEzKo1c
oXLpbjhSmrSNNLBUDcMjmslhSlcXQQyqgjg7lYLY+oRCVakJuSJMTMaUXRqGmwJQ
rwxvURyLXeBgX6o09HQ5+Jn1W667qXRWBpTfzDaAGiek6lAPWXH4jQC0amMjM14H
qORgUZDj3MCjA3erleEchVEpQArKmmZOSlVfCQrgorcLq1awaZbS2LRMj1C6FzbZ
qW22P7jstFYSUJAbrURRFZpOZYgOHWYjEy9ShMAHDMtiZ10lybIRgdzhZscucuPi
Z5C8BpwBOMt4GugJWTZDWcMdRYxeygpyJCvqKdFrUFXZ9al0gFzX5LlotAAYPEuI
ja4PnggBuVUJ+uT1DYMCU9lQOads4+ThlFf+ZA+PUAMm6ioJytYrUG4UUjePUod2
JbxnxMlADRctADrPUpka6HcKFsOaW/UVoAU5txLlsb66lZjI4zzOqoncGSqp/sTV
XR6MxSErrf7juANmVEa0lU4oNvFxaVIr7nxL0gK5+QxoLKFfyRQ97gQ5qCVO0F/E
YRAqgPDduYBXqkReTtBZ6Sn5uDlRROPmsjM/FpyP/YaWgKuHTX1UQVXRGdJUR8EY
GGxlKLIrho/EfBfkyWxcHR03GgC728R1pLtp21MtEj8K+ooGUGEqo62NeIRhrFdk
blWNAOYReWVDyQLNaHnNxZYZODj4ihbhDSfmU4q77iooWzO3zHek8iuMlfzOYvwK
Icd13y3Eps12w5fUzVKVojq01DBDg0vHa/MrPxcWDvgPMLqGaJOKPfbNwlv3Yplu
8EB7eoOBGwy/ES0uxW70cTOG5WtXyxvY4fiEq4mhsos+C9PM2fXxKPCd+Y72Mmyu
o2Azt9/6oECZOxLQuTocQDdqjziY4B5BBNCy4ljGQNMvKiI0lixdwCaOJWFdes09
wdtuPxAizrvMOEBxKSdSWqhWcNkptYnrzLcnqteFYODMogk3XBdqhaDUEYwSBdeX
Rhqo6mqupQwX/jEGbZlYRottTzhbO2KOV+JtKwKbs5W/cvc6Hh4h5SDNC/EUGpUP
h59xooB1dfUsoYXYVDxxcBvpgmHRZ91NwPWcVBJgXuznqbACjZp8wVIltjUKstrN
Wiq7NUMvD1IEIXVwrKdVYG2C9cxstIXLjjggh2OLbgGbxodRtpZffUdZiulH/sRE
kXdWX4h5yP2UISLcXQ7PlBX4iOhscLmultHM4thQdW3oL+YaNNMtq2PEWfDe9y5P
xdRQ68BcCyArp4qAAIteJSsizVWsDtKYgWN3qpWhTm2UKNZoFlw5kIXXmWcaEpNy
pIUZm3V4mByL0NVLCivCNWynqGMAW+YKR4PEBY2DQg7tu5gPlh/qZGqVZjypvSON
pjzKcBa0EZodqjPCJ5NWwtb8RtUPtIYW9Yt+IjWkLJGJXvccQvB9l/RfzADXA2Kq
Y84NxE5BF3isxCN1w1KQ2vNHJA1l5vNbf1C0qy8w2DPjqACqHF4IsJY6eZVWZdQY
oFNLh4LbXZLUigU9pNlLy4YoFU07qBgGMdQrQM1l8wNqfNwxWYcDmNVts0zFy0Qc
ykuDZCnaHZkJYFlq+JVi3joKqbE9qWtA88XE6ce/Q9hDkJ400WfFwk2GvWNywFgE
rCAkvWLUHHqUgGXDVj1BO2vlClrwK2XNGPW4Fc/qG2Sm06gbGzlpFEURYhsUAt3z
M1QoUX3ByZxY4KzCHlbdddyrbMPOWJm0UceY3lorghY2scoVGx80SrFSulpl0lM9
S6AFLVtwumU/iZYiLxUwswjdGocU1u/UUwNNsy4dOFCvL0iEEZVim7+1fEeoiw6g
K86fcUPIstqmi+gQxiW6HK67ZYgFduOyDl2XrH5leLf0g6l7RNSguOc5Y8aGUZal
6EC79wndR5xcpk9CBNgClIxkZG2iELkS0obSs7ZgqIhBsOeamC62qxqoMyj4G5Sq
tB0EAhTEc7j8vRUAYSnR0yilucYmmGEavcByq6PqFC6s6mFALxbceo8bZpWDNW9J
1A7edWj+UQFULtLGOuoN8rFB9rjhbIcWOPmG0b6w5NwGbsVugieKp2tweSgzLqC/
DzMZXZyp91EtRGC3j1FS1+f1EGJLqeQ7IWca4phlKKfCOwRtdPH6YgidUl+NvJO4
gFgU1KlgBNcTBciOMyizRahQFpeHXiJYB4q4iSl0+o2hXyQMqjebUHtAxCZNDbKQ
8DfkdTP5DdsXB9i3HEEsubUdkoOHuAkU1YmHmHteiAutfO5UAW2sBjsE7EyfiUrh
FlFXAUy3zuHdhRLGXZtOaK+4N796wAYSEUq7h4YYnLf0J/7GfHyu/wCZTVoUTBPc
0sODxNeruIYXlrIkIpCWCpCgD7VXARQHBlBUBg2h4f8AcyhZBY5UeosMVzvctAa3
wgIsCro5ZbEiVQ3HZldmy41bCugLqI2tC2q/ThljhIlUAD5bxKmyIDguo5yFv+oT
Zg7b2HcFCPlhzy0Fw2wtFmvN0uKMwLa8AmJl1FVhMwS0yalFDZL76ihSgsaDfj3F
bJ0TqJoA2vFDHCW4rdBbkdptlUmDjQHABsiWljA2XXZzPaoKxChAHzlZ+Yg2EApY
oWFDR4l2xdbWPANedQ8W+PDM3WEOZXCHhNQyBCttxUwHULFIGR7jUlDu7jcWvYa6
YctFXg/243LhvPAB7zMPFc+KuCHphAbfLKXot0m/GEFSNlUpBpKnqWMfamuy0Gmt
mIR7zqgm5xVsTKOBQeC7zWcy/wCjVRVSoaNprsuxHQ4Ed1xhKpYpZiJ0VpTvGgr6
icgbBoGMvURodk5JwELD/sKwxImPJ+ocqQC7KXUBC3jrhF4GBqbaoVMQiDYwyQAd
nuBZWR5mXo+8r8Q+zdafqVzrsledm9MFKxFLLzDQTIgrZXtjX2YArg4ruMhbUGln
9svw3dPeYdGK3QePMcRRQlKqjHxHrPWkP53DOeoLac+I4xxVHKYMyvah+ebiL4Vg
eJhLDIxjx5QXUtlos2xcKzIdWsStKXWNZmbI/Saz0Q4qIgGWmL++475wOa0Z+YEP
bqn9QCJM7RSNRkPkMal8MIoyeKsaoCwMteSIwHbFk8zHq3uj3HhD7LIotbdXf9Q6
oGjLXuonFEEDbMgUmyqw+CmKbgWHyDBqKppI3yAurhA2YSKwPWDLFSSz09wpvSrD
r/EBZUOXUsSDbc2GPLbDykbyBVwRvNxcwYZ8ss6hUARgsQKSIZNqDxmG2oUiHzlV
m0LvQe7qNU3NcUfUkmVTaIg6sAliz/dwYJAjL18xsoy2U41HXJNL+koPr2iFoLzX
MqMDYajkWi7GWhnCYjtlR5PRPYp8QDnQnLmEVfTHllALlOhXMUBlkQgDyijENt9y
yS+Vpu9MGHzBtatEpjoQFIZIAXwUPcxaKWLzCsq8Qrlyu4aQspx61BqJmzHBjSs0
XuTerzAvLtKQBwkrZFDavV9bgA0hS8U8RDFM2mucTIIdcwoBj33GS1fFbYgZ8h1E
JxXBzKqJ88GBqxM7UYO0/NSolgXCVPxEHHwI9RuqZ7iGmLg2ocMRt6tpJcUYhocV
dEA2kYPBhDLBLp44GBzbJtHRqD6lsEa0sxUNUI24uPxl3TEC0PPqJLVSr8wO5Q1R
y4hFmo8cH1uKou1XL1DAmW9QDrFyjORucihB4M2GCsc1pLmB+WEKhV3i3ipcFBYa
qOU0MY2vmqeo67LHuVYE5tJhUDbJHDmxl9V8WHxBVAIBW4wdaney/MNfR3CXCPSh
ouPm3wojv+IhViUwDr+PsiDdLRylPvXzCtVgwAsW61EoXVCziJlci9+Jje1LmocZ
HqIVaN5jku6HiBWFNAMxSOmLdsw26U134lDDqmW5sdwtSgiiMOAoFuoATc1HKf8A
UFkXPEw20HcNtQXyOYTljVsuBvNVqDVGViVcHil1F8Nc3bX7jbNaDpj+2A/ZoZoM
CeG8AqM1mAml8YzMxQth6XXzAhJdNjgPEtHm6lWq/KNsarYfUTQWHRvl3u4XY90r
f+wltbEMXTnh8THEx3269O7gIDZa5zIsKIFWOaNNSj4OYyKu4YGB4oxMwPdVzLe6
K6zfP8Rtirg7ybj2lm9cfCX9TaDnMN1hDwQhVcs8zaIHUIC5epfQ2RavCaplWNXF
WD1SEdQatA3Y7q4Uxtu0QZfrUVMbgNOvEcmZ1PVq1oqOjfJdvyFjQoBrfOUr4gow
GfzLeYYSnKP4ZWGZAEWN8sfwsOFbxy+YuFiCjLqoAaQdN+Yq/T3CuIy5htLGBBqA
NA8RNLHmaNcwF282YGYhuUto5/wisVpfIwzKWq+EibSvjUoAVoK3zKFO83xiXr1j
ZzD6IXFhVbdw0GW9XuDhlnWoRXNZo1AdNZ+Rn8ZjBaZruNGM9lzOkEnIHzFbpuaW
IMO6MkEuCDwMQlW4sLWuKmcjUQ4YhbDKplagFMaZfdymTMBKAChuPqOxaOuLf59w
kxEhXuW7PuD0M+oFcBp7ov4iqYF8GWfuLTZbPjm+YsUYIvRaXKuVHtiXGDkYeJvm
XsOQlSpICiOpRfVytrpO5SUHhzAWN9EtYC3Ytr4y5AakrnG/UVupCoa1K6qH2xLT
a8V534gg0aOAwr5cw8UdoAlN8O4uoqzRo9RKKFG98S0N9EBKByb4iCV3VGLjhPIC
8jcCVIw8Nl3+ZzxQZqowLwo7T+pZTVpLVn+ZaLgoiWrO1TTMdVaG5M5SVR8ypS2n
aOaFRpqPTbZrqWFLjVRFwghiAWL11N7gPEZ5rz3CulvvOGIFhBor8gQPdC5zLIsk
4iEoLRwepYkVCihd+Klk8Ap47uMAQVRhFob7jWcHYN1dX+4rEJcKMsEiFhiNFhId
dS38WVkC9+5oCdMqukcpsOAGtkqJFMufQ/Cw07aSPSYlf7EWMAhKn1dj+5XjcGrT
BrcIkMpe0Lfyy5XJ4dx0C9rtBqlDGVAQijRACO8i1BhGeS2OLa+zuJaeiuI4GQzS
5gaJHUWMZpU2Kazr5RbUSLalfhd+YIlrMI4l4dDRmEHJAFvr1LqoqtFnXkKgBhKS
3RsPdy2LDQFUmyuv7gsKcpHVjbMZGKwHT+IC92Ca9Q9ZUuyUrsA2poxF1J/oSw8q
3J0dixnOqYmrhMkQ3+EwlUJYI0c5Jh0TthqoAW7iLsvipVK8VgwggYcdzbceIwRN
VbeWWRvLxUChVdVKeC3gu/6netC59huC1WCoV0Bv7jpCeuHuCD068KfLLi1VSsIH
iDeqr69g6j0jbF/aDpMp0rzXMDEhYNjdV8kf0ElKE4Zcp4EN1G0NbcF8LM+Ip6Jc
KHKkz2KLWWhg5axH6vCDyh+CBiFJYsg6WpN+SWeoctHywiqywlH/AJAbgycCWJmr
LH8xZn7iaxSEscyoiNvMd0C0dwNwRowJi3uFrtF7PmDuYtUR+WUOFDVmkY+pS4xw
XHXyY26ik8+sYBfkjELAReK1CKBeCXzoLhW/iXKi05V8xBUL3lX9ROVvKIOBt2VL
9osMsS3FHhUDag7jpQLOKMv4uLMp14xf0PuHiA2KPw6YUibI7ZXKGb8sZdV0txBl
GRIANGhgVIvIOZWV9vfy6fDEPZcItvELWKrdjqPBwYOQzqEmtDWQN/mNj4nklCL5
zKsbixxVkvsjCclRZK3kThLjDf8AQep9MqDaB5QJ+/xBoFeCN1ArCcS7Urv3HjiV
tVvVQBLgLDuIuFHTKFjpiUJwwWK1orbEFwaxyOrPQqCFrSLzAqQl3epg+uDq66it
BmbQXywtATyHj4gBREGnmmN7kMhDR5zWH8MQCsdAFKBTK+O5WSqz+06hOFTwOITx
yKbT35jEVKb7uOCqOisR1BFvyiU6K6o3CKSV8tt/mviVlQAl4DfiGu3DciYPqCu5
VxK6kNZc1CB5OxzBDAsquTxEjlB1EALtazFQWbZW7/Gq8zEpbx4zGwbBLF3P4wfD
LKUmKe5WQFU58XElvYD2wqAN+oOXVhqNIXdlvpi8gzXYPMQQXAqtVuxz9TRAcceV
4IG3IT9HcuE+7DjzEfRGSKYLLJWQyfX6lQW/UJaCEzeBb7JdWwauFU3U8AWfsjpF
gel0AxjWrsAaKC9uz1UBO3ETeTDZL+9YrfESpXOWomJk3DWgdw04dY5hOV5GIMYL
DDQvxHnNrBdtymFBY4NsBRUALFTAdiL4qG45X04Iog2Atb5f7iGqJctwhoj2Bi+p
5GadeohjOjl8HRFmoYqC4a6i2nALUp0cs5jY/uNuEAHuVXPHEEjqCUqSnuKTbCdL
b6jgi3T3ZDHMkmSpj5Yju1g942+cwiLL29xdkL2wmotxEtJWTuGAHLq/MNUWqcR4
NuLYMRawUDUARCBo4zOvNVbxx6mUH2XGUrsIOvUcKi1DhqNakFA0FagCpRh6lVDA
BEt1U0vFE//ZiQI9BBMBCAAnBQJYdbmkAhsjBQkJZgGABQsJCAcCBhUICQoLAgQW
AgMBAh4BAheAAAoJEIPRnqR55X543KYQAKVsUHIhv1hzrL3fpUM3qL7W1bzilGRF
zcpBVualLIL8sm5kjfUnHNdQEgwHCthMoMAihwpcA6dZVj3/u/H4WWUldGBdSLrg
bBGA60FSxoGMCRzPHQvwiKT5olc34t02p98N94GoJH0DLxtMzq1ArY2QVNm6CRiq
j+GfkHKnnT+2Fxa+XZ4Zb5769NyKVXj51VTOHmXYf19FStTRqavdj5CTGlzR3hxv
3ofkOWaSxPwEX+xPbGAY/TizS5H2uclFw6jSR7HpXfquE/BqqmkxyqyFdHYR+t2U
BPfy49ZZV9bes1vIW168TJxJjcIYb8/XxQ+RyixJh2YptkfYSSU1HoHpqfEJfgBq
j2ahwtVT32JsP7UUfL8ulnm2fPtDneVvQM81FzYzW6jXora4sRLfPLN0yf6DDM4C
6JvzW+MxzNp+I5veldR2+JjrmW6ge7OXZnF3PNVL3uHub10l6KvxVc1MUJDq/IPU
b6oJl9UbxcqU4RSFnxCqONCH4JBHANFoCdZvn4xk57GrK/VmsFAS+kjzHUjeXwOS
eEYsrxjRfqh2b3bfi4wUExp0RC60uGC1v5/vmaKA4hGuJKniv3bOyUeiCAI6OGHk
AKT0YJsFTEFLHnUklYWJdE8oN1XLR66wwhpgwKPlxyNi3aIq2KrmMjPGXsAqRVvm
KHFTmbgFSMSOuQINBFh1uGQBEAC2AJlyNpcxCtKi8B4rbTeEBZ/n/k3r11p+z9dV
gK/SCJifkuOdNFx4J25RDnJpD4hCUwEVMSQ+j9MPdyoBLddE8FSMUqulUQbg52iq
rZSzAtbGfK/bY/QuznIGw/UsC0fKfuAG09t9Q7L+taFjz9bJbWO6LPOJ8r9VYTQo
9Ny/SbFePKW0eXZ34pGekDVBXDoYf2jlX3isHOjs51gP+YXXrD2XGXKCkt/jVywj
FjSS8oQm2l4TZWENR7gSRJM7HjdAo7b0rMi5jUxEsCcAJ8jDqFd09CEyZiTS7FAt
6lLRUaqFJch0KF7/29DQTXmbuMHeYwchOGMkhUNpfqS44MpxPRzs4DHf/oexnb4d
jKLpQ0RhpVDH30pc0anG5t3DTdiaRAHHAuq+4KOYRgdGl/OUnkeHXnSgv4B/2f6K
Hgp5HDnQV89OnzgAU7Qw+5Va3rNHvu2nLwyE0RvEIWg4UwZ2DHek+bNcK2FIoS0l
cQ0bVkNx4vQYadFIWfWnDaXgYsVoF1dgBm5R8cxHlowIdNVBZvxdrmg5Dlx7L01P
vQF372+AMKvaKOs2A1afSMmhOvpr4mYk/rP99SzbfCveNB8EiKyTCW/SQRjqLprQ
n22+U1cqRep788rtoVXORjmQEfR3a1lmGNunSk6YuC8ta5lUV59TFNEJAynf/mFH
OL5qvwARAQABiQIlBBgBCAAPBQJYdbhkAhsMBQkJZgGAAAoJEIPRnqR55X54LQUQ
AK97FxZJN/Xm8pf+rv1KrWucsSGOGEt7JbXeElOvoWkmEPZYeV4BGFEsaMWKvpqf
yN1FXH3RWBiart0Ck+fjZfFycmgAvl0Yjhy16q/SzM326WAgfOZ+B4KINUkfffAY
J2ZSFPYRX4q0EnT7VDxWEcvZ64vFiDfS+/TbQ/B+E1bEQD7hTt5c0VBi1umzsplU
5/qC0Wq4juRZ/p12l8P5gxZvxRZ8faEaIxa/B0XWcVl43/iCjQrw1/s8da2KUE9t
msKR7yeecKRjoFYhHXdM+APaHh/FmjYrna1Cmbe6biR5LutT40uBk2HFIvQRve0/
oGKq+sXxA6jsjRWXAND3oMQbLnGBrDCEco2EIN8w2A/Dr2WVFUCOc1SJ2Jrh1K2r
/b6XarIKNm62J9i7yfGrp2Jhb2k+bQkb89NVOUHOaBZ5qondl6JPk0nJS9kpWS8/
bEh5KrP8EqFHppyC7KG+Rasd+sUu8i7Qkfrg/RrYL1pqNgpyZ2kFOzpB0fZluwlf
ewMC2JZyefPzZXUafE0vMNcoufqFEgSo6cO1j2JQUfP6ubGSmTJx5Du/ayIzOGL7
Jsx907krt3yTonIqG8NkbB5Rhfa5redOTDal7ZIUodzKhTa9uAmf8enebcqDOArK
Hh0XcDe6WuVqzHObmc3R6q+Vj1NgNn0fRMRxs1H7EIkY
=Oiir
-----END PGP PUBLIC KEY BLOCK-----
